Yaru++/devices/16/drive-harddisk-solidstate.svg

<svg height="16" width="16" xmlns="http://www.w3.org/2000/svg">
  <g fill="#808080">
    <path d="m4.994 0c-1.258.015-2.179-.03-2.931.385a1.88 1.88 0 0 0 -.838.998c-.165.439-.225.96-.225 1.617v10c0 .658.06 1.179.225 1.617.164.439.461.79.838.998.752.416 1.673.37 2.931.385h5.012c1.258-.014 2.179.03 2.932-.385a1.88 1.88 0 0 0 .838-.998c.164-.438.224-.96.224-1.617v-10c0-.658-.06-1.178-.225-1.617a1.88 1.88 0 0 0 -.837-.998c-.753-.415-1.674-.37-2.932-.385h-5.008zm.006 1h5c1.259.015 2.087.06 2.453.262.184.101.29.213.387.472.097.26.16.674.16 1.266v10c0 .592-.063 1.006-.16 1.266-.098.26-.203.371-.387.472-.366.202-1.194.247-2.453.262h-5c-1.258-.015-2.09-.06-2.455-.262-.183-.1-.287-.212-.385-.472-.097-.26-.16-.674-.16-1.266v-10c0-.592.063-1.006.16-1.266.098-.26.202-.371.385-.472.365-.202 1.195-.247 2.455-.262z"/>
    <path d="m5 3v1c-.545 0-1 .455-1 1h-1v1h1v1h-1v1h1v1h-1v1h1v1h-1v1h1c0 .545.455 1 1 1v1h1v-1h1v1h1v-1h1v1h1v-1c.545 0 1-.455 1-1h1v-1h-1v-1h1v-1h-1v-1h1v-1h-1v-1h1v-1h-1c0-.545-.455-1-1-1v-1.25l-1 .25v1h-1v-1.25l-1 .25v1h-1v-1.25zm.5 2h4s.5 0 .5.5v6c0 .5-.5.5-.5.5h-4c-.5 0-.5-.5-.5-.5v-6s0-.5.5-.5z"/>
  </g>
</svg>

<svg xmlns="http://www.w3.org/2000/svg" width="16" height="16">
 <g fill="#808080">
  <path d="M4.994 0C3.736.015 2.815-.03 2.063.385a1.88 1.88 0 0 0-.838.998C1.06 1.822 1 2.343 1 3v10c0 .658.06 1.179.225 1.617.164.439.461.79.838.998.752.416 1.673.37 2.931.385H10.006c1.258-.014 2.179.03 2.932-.385a1.88 1.88 0 0 0 .838-.998c.164-.438.224-.96.224-1.617V3c0-.658-.06-1.178-.225-1.617a1.88 1.88 0 0 0-.837-.998C12.185-.03 11.264.015 10.006 0H4.998zM5 1h5c1.259.015 2.087.06 2.453.262.184.101.29.213.387.472.097.26.16.674.16 1.266v10c0 .592-.063 1.006-.16 1.266-.098.26-.203.371-.387.472-.366.202-1.194.247-2.453.262H5c-1.258-.015-2.09-.06-2.455-.262-.183-.1-.287-.212-.385-.472C2.063 14.006 2 13.592 2 13V3c0-.592.063-1.006.16-1.266.098-.26.202-.371.385-.472C2.91 1.06 3.74 1.015 5 1z" color="#000" font-family="sans-serif" font-weight="400" overflow="visible"/>
  <path d="M5 3v1c-.545 0-1 .455-1 1H3v1h1v1H3v1h1v1H3v1h1v1H3v1h1c0 .545.455 1 1 1v1h1v-1h1v1h1v-1h1v1h1v-1c.545 0 1-.455 1-1h1v-1h-1v-1h1V9h-1V8h1V7h-1V6h1V5h-1c0-.545-.455-1-1-1V2.75L9 3v1H8V2.75L7 3v1H6V2.75zm.5 2h4s.5 0 .5.5v6c0 .5-.5.5-.5.5h-4c-.5 0-.5-.5-.5-.5v-6s0-.5.5-.5z"/>
 </g>
</svg>
